X: 5652
T: Butterslip, The
R: hornpipe
M: 4/4
K: Dmajor
AG|:FA EF DF AF|GB FG ~E2 A2|~E2 Bc E2 A2|EA,CD EFFE|
FA EF DF AF|GB FG ~E2 A2|EA, CD EF GE|1 D2 FE D2AG:|2 (3DED CE D2ed||
|:ce AB cd ef|~g2 gf gb ed|c2 AB cd ed|cA GE ED D2|
Bc AB cd ef|gb (3agf gf eg|~f2df eA (3Bcd|1 ea fe df ed:|2 ea fe dc AG||

